icons/calendar_fill.svg

<svg width="48" height="48" viewBox="0 0 48 48" fill="none" xmlns="http://www.w3.org/2000/svg">
<path fill-rule="evenodd" clip-rule="evenodd" d="M15 23C13.8954 23 13 23.8954 13 25V27C13 28.1046 13.8954 29 15 29H17C18.1046 29 19 28.1046 19 27V25C19 23.8954 18.1046 23 17 23H15ZM15 25V27H17V25H15Z" fill="black"/>
<path fill-rule="evenodd" clip-rule="evenodd" d="M21 25C21 23.8954 21.8954 23 23 23H25C26.1046 23 27 23.8954 27 25V27C27 28.1046 26.1046 29 25 29H23C21.8954 29 21 28.1046 21 27V25ZM23 25H25V27H23V25Z" fill="black"/>
<path fill-rule="evenodd" clip-rule="evenodd" d="M31 23C29.8954 23 29 23.8954 29 25V27C29 28.1046 29.8954 29 31 29H33C34.1046 29 35 28.1046 35 27V25C35 23.8954 34.1046 23 33 23H31ZM31 25V27H33V25H31Z" fill="black"/>
<path fill-rule="evenodd" clip-rule="evenodd" d="M13 33C13 31.8954 13.8954 31 15 31H17C18.1046 31 19 31.8954 19 33V35C19 36.1046 18.1046 37 17 37H15C13.8954 37 13 36.1046 13 35V33ZM15 35V33H17V35H15Z" fill="black"/>
<path fill-rule="evenodd" clip-rule="evenodd" d="M23 31C21.8954 31 21 31.8954 21 33V35C21 36.1046 21.8954 37 23 37H25C26.1046 37 27 36.1046 27 35V33C27 31.8954 26.1046 31 25 31H23ZM25 33H23V35H25V33Z" fill="black"/>
<path fill-rule="evenodd" clip-rule="evenodd" d="M29 33C29 31.8954 29.8954 31 31 31H33C34.1046 31 35 31.8954 35 33V35C35 36.1046 34.1046 37 33 37H31C29.8954 37 29 36.1046 29 35V33ZM31 35V33H33V35H31Z" fill="black"/>
<path fill-rule="evenodd" clip-rule="evenodd" d="M16 6C15.4477 6 15 6.44772 15 7V10H11C8.79086 10 7 11.7909 7 14V38C7 40.2092 8.79086 42 11 42H37C39.2091 42 41 40.2092 41 38V14C41 11.7909 39.2091 10 37 10H35V13C35 13.5523 34.5523 14 34 14C33.4477 14 33 13.5523 33 13V7C33 6.44772 32.5523 6 32 6C31.4477 6 31 6.44772 31 7V10H19V13C19 13.5523 18.5523 14 18 14C17.4477 14 17 13.5523 17 13V7C17 6.44772 16.5523 6 16 6ZM9 38V21H39V38C39 39.1046 38.1046 40 37 40H11C9.89543 40 9 39.1046 9 38Z" fill="black"/>
</svg>

<svg
  xmlns="http://www.w3.org/2000/svg"
  width="24"
  height="24"
  viewBox="0 0 24 24"
  fill="none"
  stroke="currentColor"
  stroke-width="2"
  stroke-linecap="round"
  stroke-linejoin="round"
>
  <path
    fill-rule="evenodd"
    d="M15 23a2 2 0 0 0-2 2v2a2 2 0 0 0 2 2h2a2 2 0 0 0 2-2v-2a2 2 0 0 0-2-2zm0 2v2h2v-2z"
    clip-rule="evenodd"
  />
  <path
    fill-rule="evenodd"
    d="M21 25a2 2 0 0 1 2-2h2a2 2 0 0 1 2 2v2a2 2 0 0 1-2 2h-2a2 2 0 0 1-2-2zm2 0h2v2h-2z"
    clip-rule="evenodd"
  />
  <path
    fill-rule="evenodd"
    d="M31 23a2 2 0 0 0-2 2v2a2 2 0 0 0 2 2h2a2 2 0 0 0 2-2v-2a2 2 0 0 0-2-2zm0 2v2h2v-2z"
    clip-rule="evenodd"
  />
  <path
    fill-rule="evenodd"
    d="M13 33a2 2 0 0 1 2-2h2a2 2 0 0 1 2 2v2a2 2 0 0 1-2 2h-2a2 2 0 0 1-2-2zm2 2v-2h2v2z"
    clip-rule="evenodd"
  />
  <path
    fill-rule="evenodd"
    d="M23 31a2 2 0 0 0-2 2v2a2 2 0 0 0 2 2h2a2 2 0 0 0 2-2v-2a2 2 0 0 0-2-2zm2 2h-2v2h2z"
    clip-rule="evenodd"
  />
  <path
    fill-rule="evenodd"
    d="M29 33a2 2 0 0 1 2-2h2a2 2 0 0 1 2 2v2a2 2 0 0 1-2 2h-2a2 2 0 0 1-2-2zm2 2v-2h2v2z"
    clip-rule="evenodd"
  />
  <path
    fill-rule="evenodd"
    d="M16 6a1 1 0 0 0-1 1v3h-4a4 4 0 0 0-4 4v24a4 4 0 0 0 4 4h26a4 4 0 0 0 4-4V14a4 4 0 0 0-4-4h-2v3a1 1 0 1 1-2 0V7a1 1 0 1 0-2 0v3H19v3a1 1 0 1 1-2 0V7a1 1 0 0 0-1-1M9 38V21h30v17a2 2 0 0 1-2 2H11a2 2 0 0 1-2-2"
    clip-rule="evenodd"
  />
</svg>
